X:94
T:Prince Charlie's Welcome to the Isle of Skye
M:2/4
L:1/8
B:Chappell's One Hundred Scotch Melodies
B:Arranged for the Concertina by Carlo Minasi
Q:"Allegro  "1/4=120
Z:Peter Dunk 2012
K:G
!mf!(g/>e/)|(dG) (BA/G/)|([dB]G) (c/B/A/G/)|\
(e[AFD]) (A/B/c/d/)|(eA) (AB/c/)|
%
(dB/d/) (gf/e/)|(d/e/d/c/) (BA)|\
L(BG) {A/}(G/F/G/A/)|L(B[GB,][GB,]) (g/>e/)|
%
(dG) (BA/G/)|(dG) (c/B/A/G/)|\
(eA) (A/B/c/d/)|(eA) (AB/c/)|
%
(dB/d/) (gf/e/)|(d/e/d/c/) (BA)|\
L(BG) (G/F/G/A/)|LB[GB,][GB,]||

